!! 00010] TT[TB
!! Eigene Aufnahme
!!!OTL: Yifu shouzhuo The two golden bracelets
!!!ARE: Neimeng
!! Ethnic Group: Menggu
!! MM, S. 246
!!!SCT: C0542
!!!YEM: Copyright 1995, estate of Helmut Schaffrath.
**kern
*ICvox
*Ivox
*M2/4
*k[]
*C:
{8e
8e
4a
=1
8g
8a
4A
=2
8d
8d
8e
8g
=3
2a}
=4
{8c
8d
8e
8a
=5
8e
8e
8G
8A
=6
4d
8c
8e
=7
2A}
=8
{8e
8e
4a
=9
8g
8a
4A
=10
8d
8d
8e
8g
=11
2a}
=12
{8c
8d
8e
8a
=13
8e
8e
8G
8A
=14
4d
8c
8e
=15
2A}
==
!!!AGN: NN
!! Saenger: Chao Lun Batou, der das Buch nur zum Nachschlagen
!!    benutzte und ansonsten auswendig sang. Da er aus dem Osten der
!!    Neimeng kommt, kennt er nicht so viele Lieder des Westens.
!!    Alle Lieder wurden mit erkaelteter, halber Stimme in meinem
!!    Zimmer gesungen. FOTO VORHANDEN (DIAS)  31.3.87  VERZIERT
!!!ONB: ESAC (Essen Associative Code) Database: CHINA
!!!AMT: simple duple
!!!AIN: vox
!!!EED: Helmut Schaffrath
!!!EEV: 1.0
*-
